X:564
T:Billy Thom's Reel #1 
C:Joe Buchanan's Scottish Tome - Page 149.1
I:149 1
R:Reel
Z:Carl Allison
L:1/8
M:4/4
K:Amaj
E |: "A"A2 af efec | "A"Acef ec"Adim"BA | "E7"G2 eG BeGB | "E7"e2 ^de =dBGB |
"A"A2 af efec | "A"Acef ec"Adim"BA | "E7"G2 =G^G EGBd | "E7"cBAG "A"A2 :|
cB |: "A"AaaA gAfA | "A"eAGA BA"Adim"GA | "E7"BEEe EBBE | "E7"Eedc BAGB |
"A"AaaA "D"gAf"A7"A | "A"eAGA BA"Adim"GA | "E7"BEEe dcBA | "E7"GABG "A"A2 :|

